X:50
T:Rantasaunan Jenkka  (Beachfront sauna)
M:2/4
L:1/16
Q:1/4=80
S:Saveltanyt Orvokki Ramsi
R:jenkka
N:The page I transcribed this from had seemingly random flagged notes.
N:I've removed most of them for consistency; sounds good with or without.
K:Dm
"Dm" A,DFA "A7" FAfe | "Dm" d2d2 d4 | !
|: "Dm" DFAd fedc | "Gm" BAGF "A7" E2E2 | A,^CEG AGFE | "Dm" DEFG A2A2 | !
DFAd fedc | "Gm" BAGF "A7" E2E2 | A,^CEG A^cfe | "Dm" d2d2 d4 :| !
|: "Dm" A,DDF FAAd | fegf "A7" e2e2 | A^cce egge | "Dm" agfe d2d2 | !
DFFA Adde | fegf "A7" e2e2 | (3a^ga ba =gfe^c | "Dm" d2d2 d4 :| !
|: "Dm" (3fgf d2 (3fgf d2 | "A7" e>d^cB A2A2 |
(3gag eg (3gag eg | "Dm" a>gfe d2d2 | !
(3fgf d2 (3fgf d2 | "A7" e>d^cB AGFE | A,>^CEG A^cfe | "Dm" d2d2 d4 :||
